assets/icons/whykop-default.svg

<svg width="24" height="24" viewBox="0 0 24 24" xmlns="http://www.w3.org/2000/svg">
  <g id="Styleguide" fill="none" fill-rule="evenodd">
    <g id="Base-Style---Icons" transform="translate(-720 -1570)">
      <g id="Wykop" transform="translate(707 1570)">
        <g id="Wykop-Icon" transform="translate(13)">
          <path id="Rectangle-115" d="M0 0H24V24H0z"/>
          <path d="M6.75968047,20.9851934 C6.01997315,20.9301224 5.2720177,20.7619133 4.56792731,20.5350205 C2.56316301,19.8889707 1.57657416,18.4399406 1.31666432,16.5469936 C0.924971864,13.6941357 0.907163401,10.8276202 1.23558895,7.96718456 C1.54414401,5.27980426 3.30924389,3.66714698 6.21905302,3.33222674 C9.28726376,2.97906696 12.3662533,3.04541659 15.4418686,3.16234349 C16.5541477,3.20472619 17.6784241,3.33892338 18.763147,3.57163171 C21.1875349,4.09176699 22.4968318,5.59551571 22.7444632,7.92303959 C23.0048417,10.3704862 23.0936965,12.8205763 22.9008965,15.2733979 C22.8079176,16.4564127 22.6537338,17.6427758 21.9662334,18.6848967 C21.039256,20.0899581 19.5967705,20.742352 17.9273677,20.9056268 C15.9848393,21.0955999 8.52506154,21.1163948 6.75968047,20.9851934 L6.75968047,20.9851934 Z M14.1814981,18.9206009 C15.4946379,18.8450874 16.8106833,18.7670187 18.1140753,18.6078853 C18.9499484,18.5058496 19.6610684,18.0781456 19.9836828,17.3134948 C20.2464982,16.6906189 20.4999408,16.0215715 20.5320897,15.363362 C20.6249749,13.4606343 20.6334105,11.552708 20.6115717,9.64751317 C20.6039797,8.99018483 20.4588876,8.3232521 20.2897072,7.68090309 C19.975997,6.49022241 19.159807,5.76425348 17.8424494,5.60397463 C17.0987118,5.51339373 16.3506626,5.41532316 15.6028009,5.40184176 C13.7591563,5.36844666 11.9142932,5.35981152 10.0705549,5.38439524 C8.88160571,5.40025571 7.69003208,5.45515056 6.50633165,5.55965343 C4.95999468,5.69614158 4.08241237,6.42281542 3.69756211,7.78170518 C3.6466674,7.96145717 3.60523929,8.14429313 3.57224677,8.3277459 C3.22685631,10.2467746 3.29818389,12.1815756 3.36810554,14.1120591 C3.3963179,14.8928347 3.5231329,15.6773112 3.684815,16.4453103 C3.91566892,17.5411806 4.61338576,18.286887 5.78649483,18.5770455 C6.19524592,18.678112 6.61852497,18.7589122 7.03908589,18.7799714 C8.69489804,18.8627102 13.4607239,18.9621025 14.1814981,18.9206009 L14.1814981,18.9206009 Z M15.1762214,6.03701942 L12.59925,7.22781553 L15.7952071,13.3295534 L14.5262214,13.9301942 L11.2777071,7.83850485 L8.66043568,9.04791262 L11.8642857,15.1645049 L10.5952071,15.7651456 L7.33879997,9.65860194 L4.77622141,10.8428447 L8.64520711,18.2117476 L19.0142856,13.3768252 L15.1762214,6.03701942" fill="#999"/>
        </g>
      </g>
    </g>
  </g>
</svg>

<svg width="24" height="24" viewBox="0 0 24 24" xmlns="http://www.w3.org/2000/svg">
  <g fill="none" fill-rule="evenodd">
    <path d="M0 0h24v24H0z"/>
    <path d="M6.76 20.985a9.543 9.543 0 0 1-2.192-.45c-2.005-.646-2.991-2.095-3.251-3.988a34.21 34.21 0 0 1-.081-8.58c.308-2.687 2.073-4.3 4.983-4.635 3.068-.353 6.147-.287 9.223-.17a19.45 19.45 0 0 1 3.321.41c2.425.52 3.734 2.024 3.981 4.351.26 2.447.35 4.898.157 7.35-.093 1.183-.247 2.37-.935 3.412-.927 1.405-2.37 2.057-4.039 2.22-1.942.19-9.402.211-11.167.08zm7.421-2.064c1.314-.076 2.63-.154 3.933-.313.836-.102 1.547-.53 1.87-1.295.262-.622.516-1.291.548-1.95.093-1.902.101-3.81.08-5.715-.008-.658-.153-1.325-.322-1.967-.314-1.19-1.13-1.917-2.448-2.077-.743-.09-1.491-.189-2.24-.202a175.972 175.972 0 0 0-5.531-.018c-1.19.016-2.381.071-3.565.176-1.546.136-2.424.863-2.808 2.222a5.68 5.68 0 0 0-.126.546c-.345 1.919-.274 3.854-.204 5.784.028.78.155 1.565.317 2.333.23 1.096.928 1.842 2.101 2.132.41.101.833.182 1.253.203 1.656.083 6.422.182 7.142.14zm.995-12.884L12.6 7.227l3.196 6.103-1.269.6-3.248-6.091L8.66 9.048l3.204 6.117-1.269.6L7.34 9.66l-2.563 1.184 3.87 7.369 10.368-4.835-3.838-7.34" fill="#999"/>
  </g>
</svg>
